icons/adonis-filled.svg

<svg width="256" height="256" viewBox="0 0 256 256" fill="none" xmlns="http://www.w3.org/2000/svg">
<rect width="256" height="256" rx="60" fill="#5A45FE"/>
<path fill-rule="evenodd" clip-rule="evenodd" d="M46.6167 160.689L89.4607 63.3167C96.6936 46.9026 110.604 38 128.131 38C145.658 38 159.568 46.9026 166.802 63.3167L209.646 160.689C211.593 165.419 213.262 171.539 213.262 176.825C213.262 201.029 196.291 218 172.087 218C163.844 218 157.294 215.896 150.668 213.766C143.877 211.584 137.002 209.375 128.131 209.375C119.363 209.375 112.315 211.606 105.39 213.797C98.6925 215.916 92.1062 218 84.1743 218C59.9706 218 43 201.029 43 176.825C43 171.539 44.6692 165.419 46.6167 160.689ZM128.131 80.2881L85.8439 175.991C98.3632 170.148 112.83 167.366 128.131 167.366C142.876 167.366 157.899 170.148 169.862 175.991L128.131 80.2881Z" fill="white"/>
</svg>

<svg xmlns="http://www.w3.org/2000/svg" width="256" height="256" fill="none"><rect width="256" height="256" fill="#5A45FE" rx="60"/><path fill="#fff" fill-rule="evenodd" d="M46.617 160.689 89.46 63.317C96.694 46.903 110.604 38 128.13 38s31.437 8.903 38.671 25.317l42.844 97.372c1.947 4.73 3.616 10.85 3.616 16.136 0 24.204-16.971 41.175-41.175 41.175-8.243 0-14.793-2.104-21.419-4.234-6.791-2.182-13.666-4.391-22.537-4.391-8.768 0-15.816 2.231-22.741 4.422C98.692 215.916 92.106 218 84.174 218 59.971 218 43 201.029 43 176.825c0-5.286 1.67-11.406 3.617-16.136m81.514-80.4L85.844 175.99c12.52-5.843 26.986-8.625 42.287-8.625 14.745 0 29.768 2.782 41.731 8.625z" clip-rule="evenodd"/></svg>
